X:1497
T: Barkbrödslåten
R: Skänklåt
O: Leksand, Dalarna
N: Se [[http://www.spillefolk.dk/nodesamling/visnode.php?key=mg-barkbrzzd|spillefolk]].
N: Se också [[http://www.youtube.com/watch?v=ylS0H6zQDho|Youtube]]
Z: Jonas Brunskog
M: 2/4
L: 1/16
K: Dm
|:d2(AF) D2FA | {/A}d2ed T^c2A2 | (ag)Tfe Tf2(e<d) |[M:3/4] (A^c)(ec) A6 (A2 |
[M:2/4] d2)(AF) D2(FA) |{/A}d2(ed)  T^c2A2 |(ag)Tfe  Tf2(e<d) |[M:3/4] (A^c)(ec) {/c}d4>(A4:|
|:[M:2/4]a2)(ba) Tg2e2 | {/e}f2({/g}fe) (eg)(e^c) | {/^c}d2(eg) Tf2(ed) |[M:3/4] (A^c)(ec) A6 (A2| 
[M:2/4] a2)(ba)  Tg2e2| {/e}f2({/g}fe) (eg)(e^c)| ({ed^c}d2)(AG)  {FG}F2(AF)|[1 [M:3/4] D<E(D^C)  D4>A4:|[2[M:3/4] D<E(D^C)  D4>D4|]
|:[M:2/4]([A,2D2][A2f2]) L[A2Tf2]>A2 | ([E2A2][A2e2]) L[A4e4] | ([G,2D2]d2) (de)(d^c) | A6GA |
{A/}B2T(BA) G2(FG) | (Ad)(cG) TE2(D^C) |[1 D4>D4 :|[2 [F,6D6] |] 
(:musicend:)
(:music:)
